X:162
T:Petro's Fancy
M:6/8
L:1/8
B:Thompson's Compleat Collection of 200 Favourite Country Dances, vol. 3 (London, 1773)
Z:Transcribed and edited by Flynn Titford-Mock, 2007
Z:abc's:AK/Fiddler's Companion
K:G
def gdB | cea a3 | GBd FAc | cdB {B}A3 | def gdB | cea a3 | GBd FAc | BcA G3 :|
|: BdG FAc | EGc DFB | BcA FAd | cdB A3 | BdG FAc | cfg afc | BdG EcB | AGF G3 :|

